X:6435
T:Trdballehus polka
C:Frederik Iverson
L:1/16
M:4/4
O:Denmark
R:Polka
Z:Richard Robinson 
%%TUNEURL: http://www.leeds.ac.uk/music/Info/RRTuneBk/gettune/000008ff.html
%%ID:000008ff
K:A
ed|\
ccec ddfd ccec AAcA | BBBG EGBd f2e2 e2fe |\
ccec ddfd ccec AAcA |
BBBG EGBc A8 :| \
K:E
|:B3B G2B2 edef e4 | ff2e d2f2 f2e2 e4 |
B3B G2B2 edef e4 | f2e2 d2f2 (3fgfe2 e2 :|\
K:A
d2 |\
ccec ddfd ccec AAcA |
BBBG EGBd f2e2 e2ed |\
ccec ddfd ccec AAcA | BBBG EGBc A2=G2 F2E2 ||
K:D
DFAd fdAF G2E2 e3d | cdef gecA defg a4 |
DFAd fdAF G2E2 e3d | cdef gecA d4 :|
